X: 242
%
U:~=!turn!
T: The House of Letterfourie
C:
O:Scotland
B:Keith Norman MacDonald : "The Skye collection of the best reels & strathspeys extant" : 1887
Z:Ralph Palmer
R:Reel
M:C|
L:1/8
K:D
(B |A)DFD EB,B,(B | A)DFD d2 (df) | gfed eBBd | FD F/2G/2A d2 d ::
f | dg (fg/2a/2) (be)ef | dg (fg/2a/2) (fd)ec | dBAF EFGB | FD F/2G/2A d2 d :|
W:Commonly called "lasses look beyond you."
%I don't trust the comments in 106, 107, and 109. rp


